actions/24/view-calendar-whatsnext.svg

<svg xmlns="http://www.w3.org/2000/svg" viewBox="0 0 24 24" width="24" height="24">
  <defs id="defs3051">
    <style type="text/css" id="current-color-scheme">.ColorScheme-Text {color:#fcfcfc;}</style>
  </defs>
  <g transform="translate(1,1)">
    <path style="fill:currentColor;fill-opacity:1;stroke:none" d="M 6,3 C 4,3 4,5 4,5 H 3 V 6 H 4 V 7 H 3 v 1 h 1 v 6 H 3 v 1 h 1 v 1 H 3 v 1 h 1 c 0,0 0,2 2,2 2,0 1,0 1,0 h 4 V 18 H 10 9 C 9,18 7,18 7,16 7,14 7,8 7,6 7,4 9,4 9,4 h 1 c 0,0 4,0 6,0 2,0 2,2 2,2 v 1 2 1 1 h 1 V 6 C 19,6 19,3 16,3 13,3 7,3 7,3 7,3 8,3 6,3 Z M 15.707031,12 15,12.707031 17.292969,15 H 13 v 1 h 4.292969 L 15,18.292969 15.707031,19 19,15.707031 19.207031,15.5 19,15.292969 Z" class="ColorScheme-Text"/>
  </g>
</svg>

<svg xmlns="http://www.w3.org/2000/svg" viewBox="0 0 24 24" width="24" height="24">
  <defs id="defs3051">
    <style type="text/css" id="current-color-scheme">
      .ColorScheme-Text {
        color:#eff0f1;
      }
      </style>
  </defs>
  <g transform="translate(1,1)">
    <path style="fill:currentColor;fill-opacity:1;stroke:none" d="M 4 3 L 4 5 L 3 5 L 3 6 L 4 6 L 4 7 L 3 7 L 3 8 L 4 8 L 4 14 L 3 14 L 3 15 L 4 15 L 4 16 L 3 16 L 3 17 L 4 17 L 4 19 L 7 19 L 11 19 L 11 18 L 10 18 L 9 18 L 7 18 L 7 16 L 7 15 L 7 13 L 7 12 L 7 10 L 7 9 L 7 7 L 7 6 L 7 4 L 9 4 L 10 4 L 18 4 L 18 6 L 18 7 L 18 9 L 18 10 L 18 11 L 19 11 L 19 3 L 7 3 L 4 3 z M 15.707031 12 L 15 12.707031 L 17.292969 15 L 13 15 L 13 16 L 17.292969 16 L 15 18.292969 L 15.707031 19 L 19 15.707031 L 19.207031 15.5 L 19 15.292969 L 15.707031 12 z " class="ColorScheme-Text"/>
  </g>
</svg>
